app/dist/common/images/square-enix.svg

<svg height="18" viewBox="0 0 18 18" width="18" xmlns="http://www.w3.org/2000/svg"><path d="m0 0h18v18h-18z" fill="#f0f3fa"/><circle cx="9" cy="9" r="6"/><path d="m5.66 7a.68.68 0 0 0 -.66.7v.92c0 .39.3.67.66.67h2.62v1h-3.28v.01c0 .39.3.7.66.7h2.68c.37 0 .66-.31.66-.7v-1.04c0-.38-.3-.69-.66-.69h-2.63v-.86h2.59v.43h.7v-.43a.74.74 0 0 0 -.71-.71zm4.34 0v4h3v-.71h-2.2v-2.59h2.2v-.7z" fill="#fff"/><path d="m13 8.5h-1.43v1h1.43z" fill="#ff2f3b"/></svg>

<!-- by TradingView --><svg xmlns="http://www.w3.org/2000/svg" width="18" height="18" viewBox="0 0 18 18"><path fill="#F0F3FA" d="M0 0h18v18H0z"/><circle cx="9" cy="9" r="6"/><path d="M5.66 7a.68.68 0 0 0-.66.7v.92c0 .39.3.67.66.67h2.62v1H5v.01c0 .39.3.7.66.7H8.34c.37 0 .66-.31.66-.7V9.26c0-.38-.3-.69-.66-.69H5.71v-.86H8.3v.43H9v-.43A.74.74 0 0 0 8.29 7H5.66ZM10 7v4h3v-.71h-2.2V7.7H13V7h-3Z" fill="#fff"/><path d="M13 8.5h-1.43v1H13v-1Z" fill="#FF2F3B"/></svg>
